data/icons/signal4.svg

<svg width="16" height="16" viewBox="0 0 16 16" fill="none" xmlns="http://www.w3.org/2000/svg">
    <path
        d="M15.7433 3.88296C13.4738 2.29397 10.7704 1.44165 8 1.44165C5.22956 1.44165 2.52618 2.29397 0.256719 3.88296L0.25 3.88752V4.74493L7.43056 15H8.56944L15.75 4.74505V3.88752L15.7433 3.88296ZM12.604 3.31771L6.6865 12.1938L5.93412 11.1194L11.3399 2.89324C11.7686 3.01191 12.1905 3.15361 12.604 3.31771ZM8.95 2.47746C9.4032 2.51151 9.8542 2.57026 10.301 2.65343L5.31694 10.2378L4.48769 9.05343L8.95 2.47746ZM3.87384 8.17702L3.16134 7.15943L6.22291 2.56708C6.73369 2.49445 7.24845 2.45326 7.76428 2.44377L3.87384 8.17702ZM4.83481 2.84643L2.54566 6.28018L1.24566 4.42337C2.35118 3.71134 3.5626 3.17908 4.83481 2.84643ZM8 14.0698L7.30216 13.0731L13.5308 3.73027C13.9513 3.93827 14.3598 4.16966 14.7545 4.42337L8 14.0698Z"
        fill="#087E8B" />
</svg>

<svg xmlns="http://www.w3.org/2000/svg" width="16" height="16" fill="none" viewBox="0 0 16 16"><path fill="#087e8b" d="M15.743 3.883a13.5 13.5 0 0 0-15.486 0l-.007.005v.857L7.43 15h1.14l7.18-10.255v-.857zm-3.139-.565-5.917 8.876-.753-1.075 5.406-8.226q.643.178 1.264.425m-3.654-.84a13 13 0 0 1 1.351.175l-4.984 7.585-.83-1.185zM3.874 8.176 3.16 7.159l3.062-4.592q.766-.11 1.541-.123zm.96-5.33L2.547 6.28l-1.3-1.857a12.4 12.4 0 0 1 3.589-1.577M8 14.07l-.698-.997 6.229-9.343q.631.313 1.223.693z"/></svg>
